resources/vectors/megafon_cleaner.svg

<?xml version="1.0" encoding="UTF-8" standalone="no"?>
<!-- Created with Inkscape (http://www.inkscape.org/) -->

<svg
   width="192"
   height="192"
   viewBox="0 0 192 192"
   version="1.1"
   id="svg1"
   inkscape:version="1.3 (0e150ed6c4, 2023-07-21)"
   sodipodi:docname="megafon_cleaner.svg"
   inkscape:export-filename="megafon_cleaner.png"
   inkscape:export-xdpi="96"
   inkscape:export-ydpi="96"
   xmlns:inkscape="http://www.inkscape.org/namespaces/inkscape"
   xmlns:sodipodi="http://sodipodi.sourceforge.net/DTD/sodipodi-0.dtd"
   xmlns="http://www.w3.org/2000/svg"
   xmlns:svg="http://www.w3.org/2000/svg">
  <sodipodi:namedview
     id="namedview1"
     pagecolor="#505050"
     bordercolor="#eeeeee"
     borderopacity="1"
     inkscape:showpageshadow="0"
     inkscape:pageopacity="0"
     inkscape:pagecheckerboard="false"
     inkscape:deskcolor="#505050"
     inkscape:document-units="px"
     showgrid="false"
     inkscape:zoom="4.535427"
     inkscape:cx="75.296107"
     inkscape:cy="96.242316"
     inkscape:window-width="1920"
     inkscape:window-height="1017"
     inkscape:window-x="-8"
     inkscape:window-y="-8"
     inkscape:window-maximized="1"
     inkscape:current-layer="layer1">
    <inkscape:grid
       id="grid1"
       units="px"
       originx="0"
       originy="0"
       spacingx="1"
       spacingy="1"
       empcolor="#0099e5"
       empopacity="0.30196078"
       color="#0099e5"
       opacity="0.14901961"
       empspacing="5"
       dotted="false"
       gridanglex="30"
       gridanglez="30"
       visible="false" />
  </sodipodi:namedview>
  <defs
     id="defs1" />
  <g
     inkscape:label="Layer 1"
     inkscape:groupmode="layer"
     id="layer1">
    <circle
       style="fill:#54688c;stroke-width:2.29218;stroke:none;stroke-opacity:0.15000001"
       id="path1"
       cx="96"
       cy="96"
       r="88" />
    <path
       d="m 101.93165,110.55086 26.6394,26.6941 9.40857,-9.57268 -26.6941,-26.6941 z m 16.46501,-23.083836 q -2.89916,0 -5.0325,-0.875217 L 62.765713,137.02615 53.357137,127.67228 86.287154,94.74226 78.355506,86.810612 75.237547,89.92857 68.782826,83.692653 v 12.690638 l -3.117958,3.117958 -15.644494,-15.808596 3.17266,-3.117958 H 65.664868 L 59.428951,74.338778 75.237547,58.47548 q 3.938474,-3.77437 9.353875,-3.719669 5.470103,0 9.408577,3.719669 l -9.353876,9.57268 6.235917,6.290618 -3.117958,3.117958 7.876948,7.931649 8.15045,-8.369257 q -0.82051,-2.078639 -0.82051,-4.977793 0,-6.454721 4.48548,-11.049608 4.48549,-4.594886 10.94021,-4.594886 3.93847,0 7.05643,1.859835 l -11.87012,11.870123 6.67352,6.673525 11.87012,-11.870123 q 1.85984,3.117959 1.85984,7.111134 0,6.454721 -4.59489,10.940205 -4.54018,4.485484 -10.9949,4.485484 z"
       id="text1"
       style="font-weight:600;font-size:106.667px;font-family:'FiraCode Nerd Font';-inkscape-font-specification:'FiraCode Nerd Font Semi-Bold';fill:#ffffff;stroke:#000000;stroke-width:2;stroke-opacity:0.15;paint-order:stroke fill markers"
       aria-label="󱌣" />
  </g>
</svg>

<?xml version="1.0" encoding="UTF-8"?><svg id="a" xmlns="http://www.w3.org/2000/svg" width="192" height="192" viewBox="0 0 192 192"><g id="b"><circle id="c" cx="96" cy="96" r="88" style="fill:#54688c;"/><path id="d" d="m101.93,110.55l26.64,26.69,9.41-9.57-26.69-26.69-9.35,9.57Zm16.47-23.08c-1.93,0-3.61-.29-5.03-.88l-50.6,50.43-9.41-9.35,32.93-32.93-7.93-7.93-3.12,3.12-6.45-6.24v12.69l-3.12,3.12-15.64-15.81,3.17-3.12h12.47l-6.24-6.24,15.81-15.86c2.63-2.52,5.74-3.76,9.35-3.72,3.65,0,6.78,1.24,9.41,3.72l-9.35,9.57,6.24,6.29-3.12,3.12,7.88,7.93,8.15-8.37c-.55-1.39-.82-3.05-.82-4.98,0-4.3,1.5-7.99,4.49-11.05,2.99-3.06,6.64-4.59,10.94-4.59,2.63,0,4.98.62,7.06,1.86l-11.87,11.87,6.67,6.67,11.87-11.87c1.24,2.08,1.86,4.45,1.86,7.11,0,4.3-1.53,7.95-4.59,10.94-3.03,2.99-6.69,4.49-10.99,4.49Z" style="fill:#fff;"/></g></svg>
